<?xml version="1.0" encoding="UTF-8"?>
<map version="1.10" tiledversion="1.10.2" orientation="orthogonal" renderorder="right-down" width="120" height="90" tilewidth="16" tileheight="16" infinite="0" nextlayerid="3" nextobjectid="8">
 <!-- Embedded tilesets (no external .tsx reference - game-core's tiled::Loader
      only resolves this map's own virtual path, see tiles/tile_draw.rs).
      Both declared at a uniform 16x16 to match the map's own tile grid, even
      though tileset_bricks.png is really one 64x64 source image sliced into
      a 4x4 grid - avoids Tiled's oversized-tile placement/anchor rules,
      which game-core's tile_draw parsing doesn't implement. Image paths are
      resolved relative to extensions/game_core_demo/src/assets/ by the
      extension embedding them (bones_messages::game_core::TilesetImage,
      matched to these tilesets by `name`), never opened by game-core itself
      (tiled::Image only records the declared path/size from the XML). -->
 <tileset firstgid="1" name="grass" tilewidth="16" tileheight="16" tilecount="256" columns="16">
  <image source="tileset_grass.png" width="256" height="256"/>
 </tileset>
 <tileset firstgid="257" name="bricks" tilewidth="16" tileheight="16" tilecount="16" columns="4">
  <image source="tileset_bricks.png" width="64" height="64"/>
 </tileset>
 <layer id="1" name="Ground" width="120" height="90">
  <!-- CSV convention: a comma after every value except the very last one
       in the whole block (not "the last one per row" - row breaks here
       are just newlines for readability, cosmetic to the parser). A
       trailing comma on that final value parses as an extra empty field
       and fails the whole layer to load, silently (game-core swallows a
       malformed tilemap - see load_tilemap's own doc comment) rather than
       erroring, so this is easy to get wrong without noticing. -->
  <data encoding="csv">
18,53,103,18,53,103,18,53,103,18,53,103,18,53,103,18,53,103,18,53,103,18,53,103,18,53,103,18,53,103,18,53,103,18,53,103,18,53,103,18,53,103,18,53,103,18,53,103,18,53,103,18,53,103,18,53,103,18,53,103,18,53,103,18,53,103,18,53,103,18,53,103,18,53,103,18,53,103,18,53,103,18,53,103,18,53,103,18,53,103,18,53,103,18,53,103,18,53,103,18,53,103,18,53,103,18,53,103,18,53,103,18,53,103,18,53,103,18,53,103,
53,103,18,53,103,18,53,103,18,53,103,18,53,103,18,53,103,18,53,103,18,53,103,18,53,103,18,53,103,18,53,103,18,53,103,18,53,103,18,53,103,18,53,103,18,53,103,18,53,103,18,53,103,18,53,103,18,53,103,18,53,103,18,53,103,18,53,103,18,53,103,18,53,103,18,53,103,18,53,103,18,53,103,18,53,103,18,53,103,18,53,103,18,53,103,18,53,103,18,53,103,18,53,103,18,53,103,18,53,103,18,53,103,18,53,103,18,53,103,18,
103,18,53,103,18,53,103,18,53,103,18,53,103,18,53,103,18,53,103,18,53,103,18,53,103,18,53,103,18,53,103,18,53,103,18,53,103,18,53,103,18,53,103,18,53,103,18,53,103,18,53,103,18,53,103,18,53,103,18,53,103,18,53,103,18,53,103,18,53,103,18,53,103,18,53,103,18,53,103,18,53,103,18,53,103,18,53,103,18,53,103,18,53,103,18,53,103,18,53,103,18,53,103,18,53,103,18,53,103,18,53,103,18,53,103,18,53,103,18,53,
18,53,103,18,53,103,18,53,103,18,53,103,18,53,103,18,53,103,18,53,103,18,53,103,18,53,103,18,53,103,18,53,103,18,53,103,18,53,103,18,53,103,18,53,103,18,53,103,18,53,103,18,53,103,18,53,103,18,53,103,18,53,103,18,53,103,18,53,103,18,53,103,18,53,103,18,53,103,18,53,103,18,53,103,18,53,103,18,53,103,18,53,103,18,53,103,18,53,103,18,53,103,18,53,103,18,53,103,18,53,103,18,53,103,18,53,103,18,53,103,
53,103,18,53,103,18,53,103,18,53,103,18,53,103,18,53,103,18,53,103,18,53,103,18,53,103,18,53,103,18,53,103,18,53,103,18,53,103,18,53,103,18,53,103,18,53,103,18,53,103,18,53,103,18,53,103,18,53,103,18,53,103,18,53,103,18,53,103,18,53,103,18,53,103,18,53,103,18,53,103,18,53,103,18,53,103,18,53,103,18,53,103,18,53,103,18,53,103,18,53,103,18,53,103,18,53,103,18,53,103,18,53,103,18,53,103,18,53,103,18,
103,18,53,103,18,53,103,18,53,103,18,53,103,18,53,103,18,53,103,18,53,103,18,53,103,18,53,103,18,53,103,18,53,103,18,53,103,18,53,103,18,53,103,18,53,103,18,53,103,18,53,103,18,53,103,18,53,103,18,53,103,18,53,103,18,53,103,18,53,103,18,53,103,18,53,103,18,53,103,18,53,103,18,53,103,18,53,103,18,53,103,18,53,103,18,53,103,18,53,103,18,53,103,18,53,103,18,53,103,18,53,103,18,53,103,18,53,103,18,53,
18,53,103,18,53,103,257,260,265,270,257,260,265,270,257,260,265,270,257,260,265,270,257,260,265,270,257,260,265,270,257,260,265,270,257,260,265,270,257,260,265,270,257,260,265,270,257,260,265,270,257,260,265,270,257,260,265,270,257,260,265,270,257,260,265,270,257,260,265,270,257,260,265,270,257,260,265,270,257,260,265,270,257,260,265,270,257,260,265,270,257,260,265,270,257,260,265,270,257,260,265,270,257,260,265,270,257,260,265,270,257,260,265,270,18,53,103,18,53,103,
53,103,18,53,103,18,270,257,260,265,270,257,260,265,270,257,260,265,270,257,260,265,270,257,260,265,270,257,260,265,270,257,260,265,270,257,260,265,270,257,260,265,270,257,260,265,270,257,260,265,270,257,260,265,270,257,260,265,270,257,260,265,270,257,260,265,270,257,260,265,270,257,260,265,270,257,260,265,270,257,260,265,270,257,260,265,270,257,260,265,270,257,260,265,270,257,260,265,270,257,260,265,270,257,260,265,270,257,260,265,270,257,260,265,53,103,18,53,103,18,
103,18,53,103,18,53,265,270,257,260,265,270,257,260,265,270,257,260,265,270,257,260,265,270,257,260,265,270,257,260,265,270,257,260,265,270,257,260,265,270,257,260,265,270,257,260,265,270,257,260,265,270,257,260,265,270,257,260,265,270,257,260,265,270,257,260,265,270,257,260,265,270,257,260,265,270,257,260,265,270,257,260,265,270,257,260,265,270,257,260,265,270,257,260,265,270,257,260,265,270,257,260,265,270,257,260,265,270,257,260,265,270,257,260,103,18,53,103,18,53,
18,53,103,18,53,103,260,265,270,257,260,265,270,257,260,265,270,257,260,265,270,257,260,265,270,257,260,265,270,257,260,265,270,257,260,265,270,257,260,265,270,257,260,265,270,257,260,265,270,257,260,265,270,257,260,265,270,257,260,265,270,257,260,265,270,257,260,265,270,257,260,265,270,257,260,265,270,257,260,265,270,257,260,265,270,257,260,265,270,257,260,265,270,257,260,265,270,257,260,265,270,257,260,265,270,257,260,265,270,257,260,265,270,257,18,53,103,18,53,103,
53,103,18,53,103,18,257,260,265,270,257,260,265,270,257,260,265,270,257,260,265,270,257,260,265,270,257,260,265,270,257,260,265,270,257,260,265,270,257,260,265,270,257,260,265,270,257,260,265,270,257,260,265,270,257,260,265,270,257,260,265,270,257,260,265,270,257,260,265,270,257,260,265,270,257,260,265,270,257,260,265,270,257,260,265,270,257,260,265,270,257,260,265,270,257,260,265,270,257,260,265,270,257,260,265,270,257,260,265,270,257,260,265,270,53,103,18,53,103,18,
103,18,53,103,18,53,270,257,260,265,270,257,260,265,270,257,260,265,270,257,260,265,270,257,260,265,270,257,260,265,270,257,260,265,270,257,260,265,270,257,260,265,270,257,260,265,270,257,260,265,270,257,260,265,270,257,260,265,270,257,260,265,270,257,260,265,270,257,260,265,270,257,260,265,270,257,260,265,270,257,260,265,270,257,260,265,270,257,260,265,270,257,260,265,270,257,260,265,270,257,260,265,270,257,260,265,270,257,260,265,270,257,260,265,103,18,53,103,18,53,
18,53,103,18,53,103,265,270,257,260,265,270,257,260,265,270,257,260,265,270,257,260,265,270,257,260,265,270,257,260,265,270,257,260,265,270,257,260,265,270,257,260,265,270,257,260,265,270,257,260,265,270,257,260,265,270,257,260,265,270,257,260,265,270,257,260,265,270,257,260,265,270,257,260,265,270,257,260,265,270,257,260,265,270,257,260,265,270,257,260,265,270,257,260,265,270,257,260,265,270,257,260,265,270,257,260,265,270,257,260,265,270,257,260,18,53,103,18,53,103,
53,103,18,53,103,18,260,265,270,257,260,265,270,257,260,265,270,257,260,265,270,257,260,265,270,257,260,265,270,257,260,265,270,257,260,265,270,257,260,265,270,257,260,265,270,257,260,265,270,257,260,265,270,257,260,265,270,257,260,265,270,257,260,265,270,257,260,265,270,257,260,265,270,257,260,265,270,257,260,265,270,257,260,265,270,257,260,265,270,257,260,265,270,257,260,265,270,257,260,265,270,257,260,265,270,257,260,265,270,257,260,265,270,257,53,103,18,53,103,18,
103,18,53,103,18,53,257,260,265,270,257,260,265,270,257,260,265,270,257,260,265,270,257,260,265,270,257,260,265,270,257,260,265,270,257,260,265,270,257,260,265,270,257,260,265,270,257,260,265,270,257,260,265,270,257,260,265,270,257,260,265,270,257,260,265,270,257,260,265,270,257,260,265,270,257,260,265,270,257,260,265,270,257,260,265,270,257,260,265,270,257,260,265,270,257,260,265,270,257,260,265,270,257,260,265,270,257,260,265,270,257,260,265,270,103,18,53,103,18,53,
18,53,103,18,53,103,270,257,260,265,270,257,260,265,270,257,260,265,270,257,260,265,270,257,260,265,270,257,260,265,270,257,260,265,270,257,260,265,270,257,260,265,270,257,260,265,270,257,260,265,270,257,260,265,270,257,260,265,270,257,260,265,270,257,260,265,270,257,260,265,270,257,260,265,270,257,260,265,270,257,260,265,270,257,260,265,270,257,260,265,270,257,260,265,270,257,260,265,270,257,260,265,270,257,260,265,270,257,260,265,270,257,260,265,18,53,103,18,53,103,
53,103,18,53,103,18,265,270,257,260,265,270,257,260,265,270,257,260,265,270,257,260,265,270,257,260,265,270,257,260,265,270,257,260,265,270,257,260,265,270,257,260,265,270,257,260,265,270,257,260,265,270,257,260,265,270,257,260,265,270,257,260,265,270,257,260,265,270,257,260,265,270,257,260,265,270,257,260,265,270,257,260,265,270,257,260,265,270,257,260,265,270,257,260,265,270,257,260,265,270,257,260,265,270,257,260,265,270,257,260,265,270,257,260,53,103,18,53,103,18,
103,18,53,103,18,53,260,265,270,257,260,265,270,257,260,265,270,257,260,265,270,257,260,265,270,257,260,265,270,257,260,265,270,257,260,265,270,257,260,265,270,257,260,265,270,257,260,265,270,257,260,265,270,257,260,265,270,257,260,265,270,257,260,265,270,257,260,265,270,257,260,265,270,257,260,265,270,257,260,265,270,257,260,265,270,257,260,265,270,257,260,265,270,257,260,265,270,257,260,265,270,257,260,265,270,257,260,265,270,257,260,265,270,257,103,18,53,103,18,53,
18,53,103,18,53,103,257,260,265,270,257,260,265,270,257,260,265,270,257,260,265,270,257,260,265,270,257,260,265,270,257,260,265,270,257,260,265,270,257,260,265,270,257,260,265,270,257,260,265,270,257,260,265,270,257,260,265,270,257,260,265,270,257,260,265,270,257,260,265,270,257,260,265,270,257,260,265,270,257,260,265,270,257,260,265,270,257,260,265,270,257,260,265,270,257,260,265,270,257,260,265,270,257,260,265,270,257,260,265,270,257,260,265,270,18,53,103,18,53,103,
53,103,18,53,103,18,270,257,260,265,270,257,260,265,270,257,260,265,270,257,260,265,270,257,260,265,270,257,260,265,270,257,260,265,270,257,260,265,270,257,260,265,270,257,260,265,270,257,260,265,270,257,260,265,270,257,260,265,270,257,260,265,270,257,260,265,270,257,260,265,270,257,260,265,270,257,260,265,270,257,260,265,270,257,260,265,270,257,260,265,270,257,260,265,270,257,260,265,270,257,260,265,270,257,260,265,270,257,260,265,270,257,260,265,53,103,18,53,103,18,
103,18,53,103,18,53,265,270,257,260,265,270,257,260,265,270,257,260,265,270,257,260,265,270,257,260,265,270,257,260,265,270,257,260,265,270,257,260,265,270,257,260,265,270,257,260,265,270,257,260,265,270,257,260,265,270,257,260,265,270,257,260,265,270,257,260,265,270,257,260,265,270,257,260,265,270,257,260,265,270,257,260,265,270,257,260,265,270,257,260,265,270,257,260,265,270,257,260,265,270,257,260,265,270,257,260,265,270,257,260,265,270,257,260,103,18,53,103,18,53,
18,53,103,18,53,103,260,265,270,257,260,265,270,257,260,265,270,257,260,265,270,257,260,265,270,257,260,265,270,257,260,265,270,257,260,265,270,257,260,265,270,257,260,265,270,257,260,265,270,257,260,265,270,257,260,265,270,257,260,265,270,257,260,265,270,257,260,265,270,257,260,265,270,257,260,265,270,257,260,265,270,257,260,265,270,257,260,265,270,257,260,265,270,257,260,265,270,257,260,265,270,257,260,265,270,257,260,265,270,257,260,265,270,257,18,53,103,18,53,103,
53,103,18,53,103,18,257,260,265,270,257,260,265,270,257,260,265,270,257,260,265,270,257,260,265,270,257,260,265,270,257,260,265,270,257,260,265,270,257,260,265,270,257,260,265,270,257,260,265,270,257,260,265,270,257,260,265,270,257,260,265,270,257,260,265,270,257,260,265,270,257,260,265,270,257,260,265,270,257,260,265,270,257,260,265,270,257,260,265,270,257,260,265,270,257,260,265,270,257,260,265,270,257,260,265,270,257,260,265,270,257,260,265,270,53,103,18,53,103,18,
103,18,53,103,18,53,270,257,260,265,270,257,260,265,270,257,260,265,270,257,260,265,270,257,260,265,270,257,260,265,270,257,260,265,270,257,260,265,270,257,260,265,270,257,260,265,270,257,260,265,270,257,260,265,270,257,260,265,270,257,260,265,270,257,260,265,270,257,260,265,270,257,260,265,270,257,260,265,270,257,260,265,270,257,260,265,270,257,260,265,270,257,260,265,270,257,260,265,270,257,260,265,270,257,260,265,270,257,260,265,270,257,260,265,103,18,53,103,18,53,
18,53,103,18,53,103,265,270,257,260,265,270,257,260,265,270,257,260,265,270,257,260,265,270,257,260,265,270,257,260,265,270,257,260,265,270,257,260,265,270,257,260,265,270,257,260,265,270,257,260,265,270,257,260,265,270,257,260,265,270,257,260,265,270,257,260,265,270,257,260,265,270,257,260,265,270,257,260,265,270,257,260,265,270,257,260,265,270,257,260,265,270,257,260,265,270,257,260,265,270,257,260,265,270,257,260,265,270,257,260,265,270,257,260,18,53,103,18,53,103,
53,103,18,53,103,18,260,265,270,257,260,265,270,257,260,265,270,257,260,265,270,257,260,265,270,257,260,265,270,257,260,265,270,257,260,265,270,257,260,265,270,257,260,265,270,257,260,265,270,257,260,265,270,257,260,265,270,257,260,265,270,257,260,265,270,257,260,265,270,257,260,265,270,257,260,265,270,257,260,265,270,257,260,265,270,257,260,265,270,257,260,265,270,257,260,265,270,257,260,265,270,257,260,265,270,257,260,265,270,257,260,265,270,257,53,103,18,53,103,18,
103,18,53,103,18,53,257,260,265,270,257,260,265,270,257,260,265,270,257,260,265,270,257,260,265,270,257,260,265,270,257,260,265,270,257,260,265,270,257,260,265,270,257,260,265,270,257,260,265,270,257,260,265,270,257,260,265,270,257,260,265,270,257,260,265,270,257,260,265,270,257,260,265,270,257,260,265,270,257,260,265,270,257,260,265,270,257,260,265,270,257,260,265,270,257,260,265,270,257,260,265,270,257,260,265,270,257,260,265,270,257,260,265,270,103,18,53,103,18,53,
18,53,103,18,53,103,270,257,260,265,270,257,260,265,270,257,260,265,270,257,260,265,270,257,260,265,270,257,260,265,270,257,260,265,270,257,260,265,270,257,260,265,270,257,260,265,270,257,260,265,270,257,260,265,270,257,260,265,270,257,260,265,270,257,260,265,270,257,260,265,270,257,260,265,270,257,260,265,270,257,260,265,270,257,260,265,270,257,260,265,270,257,260,265,270,257,260,265,270,257,260,265,270,257,260,265,270,257,260,265,270,257,260,265,18,53,103,18,53,103,
53,103,18,53,103,18,265,270,257,260,265,270,257,260,265,270,257,260,265,270,257,260,265,270,257,260,265,270,257,260,265,270,257,260,265,270,257,260,265,270,257,260,265,270,257,260,265,270,257,260,265,270,257,260,265,270,257,260,265,270,257,260,265,270,257,260,265,270,257,260,265,270,257,260,265,270,257,260,265,270,257,260,265,270,257,260,265,270,257,260,265,270,257,260,265,270,257,260,265,270,257,260,265,270,257,260,265,270,257,260,265,270,257,260,53,103,18,53,103,18,
103,18,53,103,18,53,260,265,270,257,260,265,270,257,260,265,270,257,260,265,270,257,260,265,270,257,260,265,270,257,260,265,270,257,260,265,270,257,260,265,270,257,260,265,270,257,260,265,270,257,260,265,270,257,260,265,270,257,260,265,270,257,260,265,270,257,260,265,270,257,260,265,270,257,260,265,270,257,260,265,270,257,260,265,270,257,260,265,270,257,260,265,270,257,260,265,270,257,260,265,270,257,260,265,270,257,260,265,270,257,260,265,270,257,103,18,53,103,18,53,
18,53,103,18,53,103,257,260,265,270,257,260,265,270,257,260,265,270,257,260,265,270,257,260,265,270,257,260,265,270,257,260,265,270,257,260,265,270,257,260,265,270,257,260,265,270,257,260,265,270,257,260,265,270,257,260,265,270,257,260,265,270,257,260,265,270,257,260,265,270,257,260,265,270,257,260,265,270,257,260,265,270,257,260,265,270,257,260,265,270,257,260,265,270,257,260,265,270,257,260,265,270,257,260,265,270,257,260,265,270,257,260,265,270,18,53,103,18,53,103,
53,103,18,53,103,18,270,257,260,265,270,257,260,265,270,257,260,265,270,257,260,265,270,257,260,265,270,257,260,265,270,257,260,265,270,257,260,265,270,257,260,265,270,257,260,265,270,257,260,265,270,257,260,265,270,257,260,265,270,257,260,265,270,257,260,265,270,257,260,265,270,257,260,265,270,257,260,265,270,257,260,265,270,257,260,265,270,257,260,265,270,257,260,265,270,257,260,265,270,257,260,265,270,257,260,265,270,257,260,265,270,257,260,265,53,103,18,53,103,18,
103,18,53,103,18,53,265,270,257,260,265,270,257,260,265,270,257,260,265,270,257,260,265,270,257,260,265,270,257,260,265,270,257,260,265,270,257,260,265,270,257,260,265,270,257,260,265,270,257,260,265,270,257,260,265,270,257,260,265,270,257,260,265,270,257,260,265,270,257,260,265,270,257,260,265,270,257,260,265,270,257,260,265,270,257,260,265,270,257,260,265,270,257,260,265,270,257,260,265,270,257,260,265,270,257,260,265,270,257,260,265,270,257,260,103,18,53,103,18,53,
18,53,103,18,53,103,260,265,270,257,260,265,270,257,260,265,270,257,260,265,270,257,260,265,270,257,260,265,270,257,260,265,270,257,260,265,270,257,260,265,270,257,260,265,270,257,260,265,270,257,260,265,270,257,260,265,270,257,260,265,270,257,260,265,270,257,260,265,270,257,260,265,270,257,260,265,270,257,260,265,270,257,260,265,270,257,260,265,270,257,260,265,270,257,260,265,270,257,260,265,270,257,260,265,270,257,260,265,270,257,260,265,270,257,18,53,103,18,53,103,
53,103,18,53,103,18,257,260,265,270,257,260,265,270,257,260,265,270,257,260,265,270,257,260,265,270,257,260,265,270,257,260,265,270,257,260,265,270,257,260,265,270,257,260,265,270,257,260,265,270,257,260,265,270,257,260,265,270,257,260,265,270,257,260,265,270,257,260,265,270,257,260,265,270,257,260,265,270,257,260,265,270,257,260,265,270,257,260,265,270,257,260,265,270,257,260,265,270,257,260,265,270,257,260,265,270,257,260,265,270,257,260,265,270,53,103,18,53,103,18,
103,18,53,103,18,53,270,257,260,265,270,257,260,265,270,257,260,265,270,257,260,265,270,257,260,265,270,257,260,265,270,257,260,265,270,257,260,265,270,257,260,265,270,257,260,265,270,257,260,265,270,257,260,265,270,257,260,265,270,257,260,265,270,257,260,265,270,257,260,265,270,257,260,265,270,257,260,265,270,257,260,265,270,257,260,265,270,257,260,265,270,257,260,265,270,257,260,265,270,257,260,265,270,257,260,265,270,257,260,265,270,257,260,265,103,18,53,103,18,53,
18,53,103,18,53,103,265,270,257,260,265,270,257,260,265,270,257,260,265,270,257,260,265,270,257,260,265,270,257,260,265,270,257,260,265,270,257,260,265,270,257,260,265,270,257,260,265,270,257,260,265,270,257,260,265,270,257,260,265,270,257,260,265,270,257,260,265,270,257,260,265,270,257,260,265,270,257,260,265,270,257,260,265,270,257,260,265,270,257,260,265,270,257,260,265,270,257,260,265,270,257,260,265,270,257,260,265,270,257,260,265,270,257,260,18,53,103,18,53,103,
53,103,18,53,103,18,260,265,270,257,260,265,270,257,260,265,270,257,260,265,270,257,260,265,270,257,260,265,270,257,260,265,270,257,260,265,270,257,260,265,270,257,260,265,270,257,260,265,270,257,260,265,270,257,260,265,270,257,260,265,270,257,260,265,270,257,260,265,270,257,260,265,270,257,260,265,270,257,260,265,270,257,260,265,270,257,260,265,270,257,260,265,270,257,260,265,270,257,260,265,270,257,260,265,270,257,260,265,270,257,260,265,270,257,53,103,18,53,103,18,
103,18,53,103,18,53,257,260,265,270,257,260,265,270,257,260,265,270,257,260,265,270,257,260,265,270,257,260,265,270,257,260,265,270,257,260,265,270,257,260,265,270,257,260,265,270,257,260,265,270,257,260,265,270,257,260,265,270,257,260,265,270,257,260,265,270,257,260,265,270,257,260,265,270,257,260,265,270,257,260,265,270,257,260,265,270,257,260,265,270,257,260,265,270,257,260,265,270,257,260,265,270,257,260,265,270,257,260,265,270,257,260,265,270,103,18,53,103,18,53,
18,53,103,18,53,103,270,257,260,265,270,257,260,265,270,257,260,265,270,257,260,265,270,257,260,265,270,257,260,265,270,257,260,265,270,257,260,265,270,257,260,265,270,257,260,265,270,257,260,265,270,257,260,265,270,257,260,265,270,257,260,265,270,257,260,265,270,257,260,265,270,257,260,265,270,257,260,265,270,257,260,265,270,257,260,265,270,257,260,265,270,257,260,265,270,257,260,265,270,257,260,265,270,257,260,265,270,257,260,265,270,257,260,265,18,53,103,18,53,103,
53,103,18,53,103,18,265,270,257,260,265,270,257,260,265,270,257,260,265,270,257,260,265,270,257,260,265,270,257,260,265,270,257,260,265,270,257,260,265,270,257,260,265,270,257,260,265,270,257,260,265,270,257,260,265,270,257,260,265,270,257,260,265,270,257,260,265,270,257,260,265,270,257,260,265,270,257,260,265,270,257,260,265,270,257,260,265,270,257,260,265,270,257,260,265,270,257,260,265,270,257,260,265,270,257,260,265,270,257,260,265,270,257,260,53,103,18,53,103,18,
103,18,53,103,18,53,260,265,270,257,260,265,270,257,260,265,270,257,260,265,270,257,260,265,270,257,260,265,270,257,260,265,270,257,260,265,270,257,260,265,270,257,260,265,270,257,260,265,270,257,260,265,270,257,260,265,270,257,260,265,270,257,260,265,270,257,260,265,270,257,260,265,270,257,260,265,270,257,260,265,270,257,260,265,270,257,260,265,270,257,260,265,270,257,260,265,270,257,260,265,270,257,260,265,270,257,260,265,270,257,260,265,270,257,103,18,53,103,18,53,
18,53,103,18,53,103,257,260,265,270,257,260,265,270,257,260,265,270,257,260,265,270,257,260,265,270,257,260,265,270,257,260,265,270,257,260,265,270,257,260,265,270,257,260,265,270,257,260,265,270,257,260,265,270,257,260,265,270,257,260,265,270,257,260,265,270,257,260,265,270,257,260,265,270,257,260,265,270,257,260,265,270,257,260,265,270,257,260,265,270,257,260,265,270,257,260,265,270,257,260,265,270,257,260,265,270,257,260,265,270,257,260,265,270,18,53,103,18,53,103,
53,103,18,53,103,18,270,257,260,265,270,257,260,265,270,257,260,265,270,257,260,265,270,257,260,265,270,257,260,265,270,257,260,265,270,257,260,265,270,257,260,265,270,257,260,265,270,257,260,265,270,257,260,265,270,257,260,265,270,257,260,265,270,257,260,265,270,257,260,265,270,257,260,265,270,257,260,265,270,257,260,265,270,257,260,265,270,257,260,265,270,257,260,265,270,257,260,265,270,257,260,265,270,257,260,265,270,257,260,265,270,257,260,265,53,103,18,53,103,18,
103,18,53,103,18,53,265,270,257,260,265,270,257,260,265,270,257,260,265,270,257,260,265,270,257,260,265,270,257,260,265,270,257,260,265,270,257,260,265,270,257,260,265,270,257,260,265,270,257,260,265,270,257,260,265,270,257,260,265,270,257,260,265,270,257,260,265,270,257,260,265,270,257,260,265,270,257,260,265,270,257,260,265,270,257,260,265,270,257,260,265,270,257,260,265,270,257,260,265,270,257,260,265,270,257,260,265,270,257,260,265,270,257,260,103,18,53,103,18,53,
18,53,103,18,53,103,260,265,270,257,260,265,270,257,260,265,270,257,260,265,270,257,260,265,270,257,260,265,270,257,260,265,270,257,260,265,270,257,260,265,270,257,260,265,270,257,260,265,270,257,260,265,270,257,260,265,270,257,260,265,270,257,260,265,270,257,260,265,270,257,260,265,270,257,260,265,270,257,260,265,270,257,260,265,270,257,260,265,270,257,260,265,270,257,260,265,270,257,260,265,270,257,260,265,270,257,260,265,270,257,260,265,270,257,18,53,103,18,53,103,
53,103,18,53,103,18,257,260,265,270,257,260,265,270,257,260,265,270,257,260,265,270,257,260,265,270,257,260,265,270,257,260,265,270,257,260,265,270,257,260,265,270,257,260,265,270,257,260,265,270,257,260,265,270,257,260,265,270,257,260,265,270,257,260,265,270,257,260,265,270,257,260,265,270,257,260,265,270,257,260,265,270,257,260,265,270,257,260,265,270,257,260,265,270,257,260,265,270,257,260,265,270,257,260,265,270,257,260,265,270,257,260,265,270,53,103,18,53,103,18,
103,18,53,103,18,53,270,257,260,265,270,257,260,265,270,257,260,265,270,257,260,265,270,257,260,265,270,257,260,265,270,257,260,265,270,257,260,265,270,257,260,265,270,257,260,265,270,257,260,265,270,257,260,265,270,257,260,265,270,257,260,265,270,257,260,265,270,257,260,265,270,257,260,265,270,257,260,265,270,257,260,265,270,257,260,265,270,257,260,265,270,257,260,265,270,257,260,265,270,257,260,265,270,257,260,265,270,257,260,265,270,257,260,265,103,18,53,103,18,53,
18,53,103,18,53,103,265,270,257,260,265,270,257,260,265,270,257,260,265,270,257,260,265,270,257,260,265,270,257,260,265,270,257,260,265,270,257,260,265,270,257,260,265,270,257,260,265,270,257,260,265,270,257,260,265,270,257,260,265,270,257,260,265,270,257,260,265,270,257,260,265,270,257,260,265,270,257,260,265,270,257,260,265,270,257,260,265,270,257,260,265,270,257,260,265,270,257,260,265,270,257,260,265,270,257,260,265,270,257,260,265,270,257,260,18,53,103,18,53,103,
53,103,18,53,103,18,260,265,270,257,260,265,270,257,260,265,270,257,260,265,270,257,260,265,270,257,260,265,270,257,260,265,270,257,260,265,270,257,260,265,270,257,260,265,270,257,260,265,270,257,260,265,270,257,260,265,270,257,260,265,270,257,260,265,270,257,260,265,270,257,260,265,270,257,260,265,270,257,260,265,270,257,260,265,270,257,260,265,270,257,260,265,270,257,260,265,270,257,260,265,270,257,260,265,270,257,260,265,270,257,260,265,270,257,53,103,18,53,103,18,
103,18,53,103,18,53,257,260,265,270,257,260,265,270,257,260,265,270,257,260,265,270,257,260,265,270,257,260,265,270,257,260,265,270,257,260,265,270,257,260,265,270,257,260,265,270,257,260,265,270,257,260,265,270,257,260,265,270,257,260,265,270,257,260,265,270,257,260,265,270,257,260,265,270,257,260,265,270,257,260,265,270,257,260,265,270,257,260,265,270,257,260,265,270,257,260,265,270,257,260,265,270,257,260,265,270,257,260,265,270,257,260,265,270,103,18,53,103,18,53,
18,53,103,18,53,103,270,257,260,265,270,257,260,265,270,257,260,265,270,257,260,265,270,257,260,265,270,257,260,265,270,257,260,265,270,257,260,265,270,257,260,265,270,257,260,265,270,257,260,265,270,257,260,265,270,257,260,265,270,257,260,265,270,257,260,265,270,257,260,265,270,257,260,265,270,257,260,265,270,257,260,265,270,257,260,265,270,257,260,265,270,257,260,265,270,257,260,265,270,257,260,265,270,257,260,265,270,257,260,265,270,257,260,265,18,53,103,18,53,103,
53,103,18,53,103,18,265,270,257,260,265,270,257,260,265,270,257,260,265,270,257,260,265,270,257,260,265,270,257,260,265,270,257,260,265,270,257,260,265,270,257,260,265,270,257,260,265,270,257,260,265,270,257,260,265,270,257,260,265,270,257,260,265,270,257,260,265,270,257,260,265,270,257,260,265,270,257,260,265,270,257,260,265,270,257,260,265,270,257,260,265,270,257,260,265,270,257,260,265,270,257,260,265,270,257,260,265,270,257,260,265,270,257,260,53,103,18,53,103,18,
103,18,53,103,18,53,260,265,270,257,260,265,270,257,260,265,270,257,260,265,270,257,260,265,270,257,260,265,270,257,260,265,270,257,260,265,270,257,260,265,270,257,260,265,270,257,260,265,270,257,260,265,270,257,260,265,270,257,260,265,270,257,260,265,270,257,260,265,270,257,260,265,270,257,260,265,270,257,260,265,270,257,260,265,270,257,260,265,270,257,260,265,270,257,260,265,270,257,260,265,270,257,260,265,270,257,260,265,270,257,260,265,270,257,103,18,53,103,18,53,
18,53,103,18,53,103,257,260,265,270,257,260,265,270,257,260,265,270,257,260,265,270,257,260,265,270,257,260,265,270,257,260,265,270,257,260,265,270,257,260,265,270,257,260,265,270,257,260,265,270,257,260,265,270,257,260,265,270,257,260,265,270,257,260,265,270,257,260,265,270,257,260,265,270,257,260,265,270,257,260,265,270,257,260,265,270,257,260,265,270,257,260,265,270,257,260,265,270,257,260,265,270,257,260,265,270,257,260,265,270,257,260,265,270,18,53,103,18,53,103,
53,103,18,53,103,18,270,257,260,265,270,257,260,265,270,257,260,265,270,257,260,265,270,257,260,265,270,257,260,265,270,257,260,265,270,257,260,265,270,257,260,265,270,257,260,265,270,257,260,265,270,257,260,265,270,257,260,265,270,257,260,265,270,257,260,265,270,257,260,265,270,257,260,265,270,257,260,265,270,257,260,265,270,257,260,265,270,257,260,265,270,257,260,265,270,257,260,265,270,257,260,265,270,257,260,265,270,257,260,265,270,257,260,265,53,103,18,53,103,18,
103,18,53,103,18,53,265,270,257,260,265,270,257,260,265,270,257,260,265,270,257,260,265,270,257,260,265,270,257,260,265,270,257,260,265,270,257,260,265,270,257,260,265,270,257,260,265,270,257,260,265,270,257,260,265,270,257,260,265,270,257,260,265,270,257,260,265,270,257,260,265,270,257,260,265,270,257,260,265,270,257,260,265,270,257,260,265,270,257,260,265,270,257,260,265,270,257,260,265,270,257,260,265,270,257,260,265,270,257,260,265,270,257,260,103,18,53,103,18,53,
18,53,103,18,53,103,260,265,270,257,260,265,270,257,260,265,270,257,260,265,270,257,260,265,270,257,260,265,270,257,260,265,270,257,260,265,270,257,260,265,270,257,260,265,270,257,260,265,270,257,260,265,270,257,260,265,270,257,260,265,270,257,260,265,270,257,260,265,270,257,260,265,270,257,260,265,270,257,260,265,270,257,260,265,270,257,260,265,270,257,260,265,270,257,260,265,270,257,260,265,270,257,260,265,270,257,260,265,270,257,260,265,270,257,18,53,103,18,53,103,
53,103,18,53,103,18,257,260,265,270,257,260,265,270,257,260,265,270,257,260,265,270,257,260,265,270,257,260,265,270,257,260,265,270,257,260,265,270,257,260,265,270,257,260,265,270,257,260,265,270,257,260,265,270,257,260,265,270,257,260,265,270,257,260,265,270,257,260,265,270,257,260,265,270,257,260,265,270,257,260,265,270,257,260,265,270,257,260,265,270,257,260,265,270,257,260,265,270,257,260,265,270,257,260,265,270,257,260,265,270,257,260,265,270,53,103,18,53,103,18,
103,18,53,103,18,53,270,257,260,265,270,257,260,265,270,257,260,265,270,257,260,265,270,257,260,265,270,257,260,265,270,257,260,265,270,257,260,265,270,257,260,265,270,257,260,265,270,257,260,265,270,257,260,265,270,257,260,265,270,257,260,265,270,257,260,265,270,257,260,265,270,257,260,265,270,257,260,265,270,257,260,265,270,257,260,265,270,257,260,265,270,257,260,265,270,257,260,265,270,257,260,265,270,257,260,265,270,257,260,265,270,257,260,265,103,18,53,103,18,53,
18,53,103,18,53,103,265,270,257,260,265,270,257,260,265,270,257,260,265,270,257,260,265,270,257,260,265,270,257,260,265,270,257,260,265,270,257,260,265,270,257,260,265,270,257,260,265,270,257,260,265,270,257,260,265,270,257,260,265,270,257,260,265,270,257,260,265,270,257,260,265,270,257,260,265,270,257,260,265,270,257,260,265,270,257,260,265,270,257,260,265,270,257,260,265,270,257,260,265,270,257,260,265,270,257,260,265,270,257,260,265,270,257,260,18,53,103,18,53,103,
53,103,18,53,103,18,260,265,270,257,260,265,270,257,260,265,270,257,260,265,270,257,260,265,270,257,260,265,270,257,260,265,270,257,260,265,270,257,260,265,270,257,260,265,270,257,260,265,270,257,260,265,270,257,260,265,270,257,260,265,270,257,260,265,270,257,260,265,270,257,260,265,270,257,260,265,270,257,260,265,270,257,260,265,270,257,260,265,270,257,260,265,270,257,260,265,270,257,260,265,270,257,260,265,270,257,260,265,270,257,260,265,270,257,53,103,18,53,103,18,
103,18,53,103,18,53,257,260,265,270,257,260,265,270,257,260,265,270,257,260,265,270,257,260,265,270,257,260,265,270,257,260,265,270,257,260,265,270,257,260,265,270,257,260,265,270,257,260,265,270,257,260,265,270,257,260,265,270,257,260,265,270,257,260,265,270,257,260,265,270,257,260,265,270,257,260,265,270,257,260,265,270,257,260,265,270,257,260,265,270,257,260,265,270,257,260,265,270,257,260,265,270,257,260,265,270,257,260,265,270,257,260,265,270,103,18,53,103,18,53,
18,53,103,18,53,103,270,257,260,265,270,257,260,265,270,257,260,265,270,257,260,265,270,257,260,265,270,257,260,265,270,257,260,265,270,257,260,265,270,257,260,265,270,257,260,265,270,257,260,265,270,257,260,265,270,257,260,265,270,257,260,265,270,257,260,265,270,257,260,265,270,257,260,265,270,257,260,265,270,257,260,265,270,257,260,265,270,257,260,265,270,257,260,265,270,257,260,265,270,257,260,265,270,257,260,265,270,257,260,265,270,257,260,265,18,53,103,18,53,103,
53,103,18,53,103,18,265,270,257,260,265,270,257,260,265,270,257,260,265,270,257,260,265,270,257,260,265,270,257,260,265,270,257,260,265,270,257,260,265,270,257,260,265,270,257,260,265,270,257,260,265,270,257,260,265,270,257,260,265,270,257,260,265,270,257,260,265,270,257,260,265,270,257,260,265,270,257,260,265,270,257,260,265,270,257,260,265,270,257,260,265,270,257,260,265,270,257,260,265,270,257,260,265,270,257,260,265,270,257,260,265,270,257,260,53,103,18,53,103,18,
103,18,53,103,18,53,260,265,270,257,260,265,270,257,260,265,270,257,260,265,270,257,260,265,270,257,260,265,270,257,260,265,270,257,260,265,270,257,260,265,270,257,260,265,270,257,260,265,270,257,260,265,270,257,260,265,270,257,260,265,270,257,260,265,270,257,260,265,270,257,260,265,270,257,260,265,270,257,260,265,270,257,260,265,270,257,260,265,270,257,260,265,270,257,260,265,270,257,260,265,270,257,260,265,270,257,260,265,270,257,260,265,270,257,103,18,53,103,18,53,
18,53,103,18,53,103,257,260,265,270,257,260,265,270,257,260,265,270,257,260,265,270,257,260,265,270,257,260,265,270,257,260,265,270,257,260,265,270,257,260,265,270,257,260,265,270,257,260,265,270,257,260,265,270,257,260,265,270,257,260,265,270,257,260,265,270,257,260,265,270,257,260,265,270,257,260,265,270,257,260,265,270,257,260,265,270,257,260,265,270,257,260,265,270,257,260,265,270,257,260,265,270,257,260,265,270,257,260,265,270,257,260,265,270,18,53,103,18,53,103,
53,103,18,53,103,18,270,257,260,265,270,257,260,265,270,257,260,265,270,257,260,265,270,257,260,265,270,257,260,265,270,257,260,265,270,257,260,265,270,257,260,265,270,257,260,265,270,257,260,265,270,257,260,265,270,257,260,265,270,257,260,265,270,257,260,265,270,257,260,265,270,257,260,265,270,257,260,265,270,257,260,265,270,257,260,265,270,257,260,265,270,257,260,265,270,257,260,265,270,257,260,265,270,257,260,265,270,257,260,265,270,257,260,265,53,103,18,53,103,18,
103,18,53,103,18,53,265,270,257,260,265,270,257,260,265,270,257,260,265,270,257,260,265,270,257,260,265,270,257,260,265,270,257,260,265,270,257,260,265,270,257,260,265,270,257,260,265,270,257,260,265,270,257,260,265,270,257,260,265,270,257,260,265,270,257,260,265,270,257,260,265,270,257,260,265,270,257,260,265,270,257,260,265,270,257,260,265,270,257,260,265,270,257,260,265,270,257,260,265,270,257,260,265,270,257,260,265,270,257,260,265,270,257,260,103,18,53,103,18,53,
18,53,103,18,53,103,260,265,270,257,260,265,270,257,260,265,270,257,260,265,270,257,260,265,270,257,260,265,270,257,260,265,270,257,260,265,270,257,260,265,270,257,260,265,270,257,260,265,270,257,260,265,270,257,260,265,270,257,260,265,270,257,260,265,270,257,260,265,270,257,260,265,270,257,260,265,270,257,260,265,270,257,260,265,270,257,260,265,270,257,260,265,270,257,260,265,270,257,260,265,270,257,260,265,270,257,260,265,270,257,260,265,270,257,18,53,103,18,53,103,
53,103,18,53,103,18,257,260,265,270,257,260,265,270,257,260,265,270,257,260,265,270,257,260,265,270,257,260,265,270,257,260,265,270,257,260,265,270,257,260,265,270,257,260,265,270,257,260,265,270,257,260,265,270,257,260,265,270,257,260,265,270,257,260,265,270,257,260,265,270,257,260,265,270,257,260,265,270,257,260,265,270,257,260,265,270,257,260,265,270,257,260,265,270,257,260,265,270,257,260,265,270,257,260,265,270,257,260,265,270,257,260,265,270,53,103,18,53,103,18,
103,18,53,103,18,53,270,257,260,265,270,257,260,265,270,257,260,265,270,257,260,265,270,257,260,265,270,257,260,265,270,257,260,265,270,257,260,265,270,257,260,265,270,257,260,265,270,257,260,265,270,257,260,265,270,257,260,265,270,257,260,265,270,257,260,265,270,257,260,265,270,257,260,265,270,257,260,265,270,257,260,265,270,257,260,265,270,257,260,265,270,257,260,265,270,257,260,265,270,257,260,265,270,257,260,265,270,257,260,265,270,257,260,265,103,18,53,103,18,53,
18,53,103,18,53,103,265,270,257,260,265,270,257,260,265,270,257,260,265,270,257,260,265,270,257,260,265,270,257,260,265,270,257,260,265,270,257,260,265,270,257,260,265,270,257,260,265,270,257,260,265,270,257,260,265,270,257,260,265,270,257,260,265,270,257,260,265,270,257,260,265,270,257,260,265,270,257,260,265,270,257,260,265,270,257,260,265,270,257,260,265,270,257,260,265,270,257,260,265,270,257,260,265,270,257,260,265,270,257,260,265,270,257,260,18,53,103,18,53,103,
53,103,18,53,103,18,260,265,270,257,260,265,270,257,260,265,270,257,260,265,270,257,260,265,270,257,260,265,270,257,260,265,270,257,260,265,270,257,260,265,270,257,260,265,270,257,260,265,270,257,260,265,270,257,260,265,270,257,260,265,270,257,260,265,270,257,260,265,270,257,260,265,270,257,260,265,270,257,260,265,270,257,260,265,270,257,260,265,270,257,260,265,270,257,260,265,270,257,260,265,270,257,260,265,270,257,260,265,270,257,260,265,270,257,53,103,18,53,103,18,
103,18,53,103,18,53,257,260,265,270,257,260,265,270,257,260,265,270,257,260,265,270,257,260,265,270,257,260,265,270,257,260,265,270,257,260,265,270,257,260,265,270,257,260,265,270,257,260,265,270,257,260,265,270,257,260,265,270,257,260,265,270,257,260,265,270,257,260,265,270,257,260,265,270,257,260,265,270,257,260,265,270,257,260,265,270,257,260,265,270,257,260,265,270,257,260,265,270,257,260,265,270,257,260,265,270,257,260,265,270,257,260,265,270,103,18,53,103,18,53,
18,53,103,18,53,103,270,257,260,265,270,257,260,265,270,257,260,265,270,257,260,265,270,257,260,265,270,257,260,265,270,257,260,265,270,257,260,265,270,257,260,265,270,257,260,265,270,257,260,265,270,257,260,265,270,257,260,265,270,257,260,265,270,257,260,265,270,257,260,265,270,257,260,265,270,257,260,265,270,257,260,265,270,257,260,265,270,257,260,265,270,257,260,265,270,257,260,265,270,257,260,265,270,257,260,265,270,257,260,265,270,257,260,265,18,53,103,18,53,103,
53,103,18,53,103,18,265,270,257,260,265,270,257,260,265,270,257,260,265,270,257,260,265,270,257,260,265,270,257,260,265,270,257,260,265,270,257,260,265,270,257,260,265,270,257,260,265,270,257,260,265,270,257,260,265,270,257,260,265,270,257,260,265,270,257,260,265,270,257,260,265,270,257,260,265,270,257,260,265,270,257,260,265,270,257,260,265,270,257,260,265,270,257,260,265,270,257,260,265,270,257,260,265,270,257,260,265,270,257,260,265,270,257,260,53,103,18,53,103,18,
103,18,53,103,18,53,260,265,270,257,260,265,270,257,260,265,270,257,260,265,270,257,260,265,270,257,260,265,270,257,260,265,270,257,260,265,270,257,260,265,270,257,260,265,270,257,260,265,270,257,260,265,270,257,260,265,270,257,260,265,270,257,260,265,270,257,260,265,270,257,260,265,270,257,260,265,270,257,260,265,270,257,260,265,270,257,260,265,270,257,260,265,270,257,260,265,270,257,260,265,270,257,260,265,270,257,260,265,270,257,260,265,270,257,103,18,53,103,18,53,
18,53,103,18,53,103,257,260,265,270,257,260,265,270,257,260,265,270,257,260,265,270,257,260,265,270,257,260,265,270,257,260,265,270,257,260,265,270,257,260,265,270,257,260,265,270,257,260,265,270,257,260,265,270,257,260,265,270,257,260,265,270,257,260,265,270,257,260,265,270,257,260,265,270,257,260,265,270,257,260,265,270,257,260,265,270,257,260,265,270,257,260,265,270,257,260,265,270,257,260,265,270,257,260,265,270,257,260,265,270,257,260,265,270,18,53,103,18,53,103,
53,103,18,53,103,18,270,257,260,265,270,257,260,265,270,257,260,265,270,257,260,265,270,257,260,265,270,257,260,265,270,257,260,265,270,257,260,265,270,257,260,265,270,257,260,265,270,257,260,265,270,257,260,265,270,257,260,265,270,257,260,265,270,257,260,265,270,257,260,265,270,257,260,265,270,257,260,265,270,257,260,265,270,257,260,265,270,257,260,265,270,257,260,265,270,257,260,265,270,257,260,265,270,257,260,265,270,257,260,265,270,257,260,265,53,103,18,53,103,18,
103,18,53,103,18,53,265,270,257,260,265,270,257,260,265,270,257,260,265,270,257,260,265,270,257,260,265,270,257,260,265,270,257,260,265,270,257,260,265,270,257,260,265,270,257,260,265,270,257,260,265,270,257,260,265,270,257,260,265,270,257,260,265,270,257,260,265,270,257,260,265,270,257,260,265,270,257,260,265,270,257,260,265,270,257,260,265,270,257,260,265,270,257,260,265,270,257,260,265,270,257,260,265,270,257,260,265,270,257,260,265,270,257,260,103,18,53,103,18,53,
18,53,103,18,53,103,260,265,270,257,260,265,270,257,260,265,270,257,260,265,270,257,260,265,270,257,260,265,270,257,260,265,270,257,260,265,270,257,260,265,270,257,260,265,270,257,260,265,270,257,260,265,270,257,260,265,270,257,260,265,270,257,260,265,270,257,260,265,270,257,260,265,270,257,260,265,270,257,260,265,270,257,260,265,270,257,260,265,270,257,260,265,270,257,260,265,270,257,260,265,270,257,260,265,270,257,260,265,270,257,260,265,270,257,18,53,103,18,53,103,
53,103,18,53,103,18,257,260,265,270,257,260,265,270,257,260,265,270,257,260,265,270,257,260,265,270,257,260,265,270,257,260,265,270,257,260,265,270,257,260,265,270,257,260,265,270,257,260,265,270,257,260,265,270,257,260,265,270,257,260,265,270,257,260,265,270,257,260,265,270,257,260,265,270,257,260,265,270,257,260,265,270,257,260,265,270,257,260,265,270,257,260,265,270,257,260,265,270,257,260,265,270,257,260,265,270,257,260,265,270,257,260,265,270,53,103,18,53,103,18,
103,18,53,103,18,53,270,257,260,265,270,257,260,265,270,257,260,265,270,257,260,265,270,257,260,265,270,257,260,265,270,257,260,265,270,257,260,265,270,257,260,265,270,257,260,265,270,257,260,265,270,257,260,265,270,257,260,265,270,257,260,265,270,257,260,265,270,257,260,265,270,257,260,265,270,257,260,265,270,257,260,265,270,257,260,265,270,257,260,265,270,257,260,265,270,257,260,265,270,257,260,265,270,257,260,265,270,257,260,265,270,257,260,265,103,18,53,103,18,53,
18,53,103,18,53,103,18,53,103,18,53,103,18,53,103,18,53,103,18,53,103,18,53,103,18,53,103,18,53,103,18,53,103,18,53,103,18,53,103,18,53,103,18,53,103,18,53,103,18,53,103,18,53,103,18,53,103,18,53,103,18,53,103,18,53,103,18,53,103,18,53,103,18,53,103,18,53,103,18,53,103,18,53,103,18,53,103,18,53,103,18,53,103,18,53,103,18,53,103,18,53,103,18,53,103,18,53,103,18,53,103,18,53,103,18,53,103,18,53,103,
53,103,18,53,103,18,53,103,18,53,103,18,53,103,18,53,103,18,53,103,18,53,103,18,53,103,18,53,103,18,53,103,18,53,103,18,53,103,18,53,103,18,53,103,18,53,103,18,53,103,18,53,103,18,53,103,18,53,103,18,53,103,18,53,103,18,53,103,18,53,103,18,53,103,18,53,103,18,53,103,18,53,103,18,53,103,18,53,103,18,53,103,18,53,103,18,53,103,18,53,103,18,53,103,18,53,103,18,53,103,18,53,103,18,53,103,18,53,103,18,
103,18,53,103,18,53,103,18,53,103,18,53,103,18,53,103,18,53,103,18,53,103,18,53,103,18,53,103,18,53,103,18,53,103,18,53,103,18,53,103,18,53,103,18,53,103,18,53,103,18,53,103,18,53,103,18,53,103,18,53,103,18,53,103,18,53,103,18,53,103,18,53,103,18,53,103,18,53,103,18,53,103,18,53,103,18,53,103,18,53,103,18,53,103,18,53,103,18,53,103,18,53,103,18,53,103,18,53,103,18,53,103,18,53,103,18,53,103,18,53,
18,53,103,18,53,103,18,53,103,18,53,103,18,53,103,18,53,103,18,53,103,18,53,103,18,53,103,18,53,103,18,53,103,18,53,103,18,53,103,18,53,103,18,53,103,18,53,103,18,53,103,18,53,103,18,53,103,18,53,103,18,53,103,18,53,103,18,53,103,18,53,103,18,53,103,18,53,103,18,53,103,18,53,103,18,53,103,18,53,103,18,53,103,18,53,103,18,53,103,18,53,103,18,53,103,18,53,103,18,53,103,18,53,103,18,53,103,18,53,103,
53,103,18,53,103,18,53,103,18,53,103,18,53,103,18,53,103,18,53,103,18,53,103,18,53,103,18,53,103,18,53,103,18,53,103,18,53,103,18,53,103,18,53,103,18,53,103,18,53,103,18,53,103,18,53,103,18,53,103,18,53,103,18,53,103,18,53,103,18,53,103,18,53,103,18,53,103,18,53,103,18,53,103,18,53,103,18,53,103,18,53,103,18,53,103,18,53,103,18,53,103,18,53,103,18,53,103,18,53,103,18,53,103,18,53,103,18,53,103,18,
103,18,53,103,18,53,103,18,53,103,18,53,103,18,53,103,18,53,103,18,53,103,18,53,103,18,53,103,18,53,103,18,53,103,18,53,103,18,53,103,18,53,103,18,53,103,18,53,103,18,53,103,18,53,103,18,53,103,18,53,103,18,53,103,18,53,103,18,53,103,18,53,103,18,53,103,18,53,103,18,53,103,18,53,103,18,53,103,18,53,103,18,53,103,18,53,103,18,53,103,18,53,103,18,53,103,18,53,103,18,53,103,18,53,103,18,53,103,18,53
</data>
 </layer>
 <objectgroup id="2" name="Collision">
  <!-- Outer walls only, boxing in a much bigger open arena than the
       original 38x28 map (still no interior walls, so the controlled
       entity can reach every spawned obstacle directly) - a real space
       for EntityOp::SetCameraFollow's clamp to actually matter, instead of
       the whole level always fitting inside one screen. Same border style
       as before: a 64px grass margin, then a 32px
       (two-tile) wall band. The interior's top-left corner is still world
       (96, 96), exactly where the original map's interior began - every
       entity spawn coordinate in extensions/game_core_demo/src/lib.rs
       (already offset (64, 64) from the pre-increment-6 design) stays
       valid unchanged; only the far/bottom-right edges moved outward. -->
  <object id="1" x="64" y="64" width="1792" height="32"/>
  <object id="2" x="64" y="1344" width="1792" height="32"/>
  <object id="3" x="64" y="64" width="32" height="1312"/>
  <object id="4" x="1824" y="64" width="32" height="1312"/>
 </objectgroup>
</map>
